X: 8066
T: Connie The Soldier
R: jig
M: 6/8
K: Amajor
C2D|:EAA ABA|GED B,CD|B,CD C2C|DCA, C2D|
EAA ABA|GED B,CD|E2D B,CA,|1 A,EE C2D:|2 [M:3/8] A,2 B||
|:[M:6/8] cBA BAG|ABA [Aa]2 B|BcA ABA|GFE E2 B|
cBA BAG|ABA GED|B,CD E2D|1 B,CA,A,2 B:|2 B,CA,A,3|[M:3/8] C2D|

